!!!OTL: Fein's Trudchen.
!!!OTL-incipit: FEINS TRUDCHEN SOLLST FRUEH AUFSTEHEN
!!!ARE: Europa, Mitteleuropa, Deutschland, Niederrhein
!!!SCT: Z1052
!!!TXL: @@DE
!!!YEM: Copyright 1995, estate of Helmut Schaffrath.
**kern	**text
*ICvox	*
*M6/8	*
*k[b-]	*
*F:	*
!LO:TX:a:t=Vom Niederrhein.	!
{8c	Fein's
=1	=1
8.f	Trudchen,
16g	.
8a	ſollſt
8gL	früh
8aJ	.
8g	auf-
=2	=2
(4f	-ſte-
8d)	.
4c}	-hen,
{8c	luſt-
=3	=3
8.f	-wan-
16g	-deln
8a	in
8gL	Grün-
8aJ	.
8g	-wald
=4	=4
(4f	ge-
8d)	.
4c	-hen,
8r}	.
=5	=5
{4.a	dort
4.b-/	er-
=6	=6
8cc	-wartet
8a	.
8f	der
8gL	Lieb-
8fJ	.
8g	-ſte
=7	=7
(8.fL	dich,
16g	.
8a	.
8g	.
8a	.
8b-J)}	.
=8	=8
{4.a	dort
4.b-/	er-
=9	=9
8cc	-wartet.
8a	.
8f	der
8gL	Lieb-
8fJ	.
8g	-ſte
=10	=10
[>4.f	dich!
4f]}	.
==	==
!!!AGN: Romanze, Ballade
!!!ONB: ESAC (Essen Associative Code) Database: ZUCCAL
!!!AMT: compound duple
!!!AIN: vox
!!!EED: Helmut Schaffrath
!!!EEV: 1.0
!!!RDF**kern: >= above
!!!GTL: II. Gau- Leuschen.
!!!URL-scan: https://www.digitale-sammlungen.de/de/view/bsb11160573?page=121
!!!ENC: Anna Maria Matuszewska
!!!EEV: 2025/03/02
*-	*-
